X:1
T:Sodger Laddie
M:6/8
L:1/8
K:F
 c| AGF FCD| G3/2 A/2 GG-A c|d/2-e/2 fF FCD| F3/2 G/2 F A2 F| Bc/2-B/2A/2-G/2 AB/2-A/2G/2-F/2|\
 G3/2 A/2 G GAc|d/2-e/2 fF FCD| F3/2- G/2 F Ffc|d/2-e/2 fc fcA| g3/2 a/2 g g2 f|\
d/2-e/2 fc fcA| f3/2 g/2 e fcA| B3/2 c/2 d cdf| fgG GAc|d/2-e/2 fF FCD|\
 F3/2- G/2 FF f||
